public/assets/logo6.svg

<svg width="163" height="33" viewBox="0 0 163 33" fill="none" xmlns="http://www.w3.org/2000/svg">
<path fill-rule="evenodd" clip-rule="evenodd" d="M9.12492 2.88486L4.51646 5.54631L9.1282 8.20833L13.738 5.54688L9.12492 2.88486ZM15.0773 7.86554L10.467 10.5273L10.4665 15.8513L15.0773 13.189L15.0773 7.86554ZM16.4161 15.5079L11.8053 18.1703L16.4168 20.8323L21.0272 18.1705L16.4161 15.5079ZM22.3659 20.4895L17.7558 23.1512V28.4745L22.3659 25.8129V20.4895ZM15.0781 28.4748V23.1512L10.4663 20.4892V25.8128L15.0781 28.4748ZM7.78886 15.8516L3.17769 13.189V7.86529L7.78936 10.5273L7.78886 15.8516ZM7.78865 18.9435L1.50404 15.3146C0.882731 14.9558 0.5 14.2929 0.5 13.5754V5.54659C0.5 5.06833 0.75512 4.62639 1.16928 4.3872L8.12044 0.372817C8.7417 0.0140318 9.50717 0.0139038 10.1285 0.372479L17.0853 4.38698C17.4997 4.6261 17.755 5.06817 17.755 5.54659L17.755 13.189L24.3743 17.0111C24.7885 17.2503 25.0436 17.6922 25.0436 18.1705V26.1993C25.0436 26.9168 24.6609 27.5798 24.0395 27.9386L17.0863 31.953C16.6721 32.1921 16.1618 32.1921 15.7476 31.953L8.79294 27.9386C8.17149 27.5799 7.78865 26.9169 7.78865 26.1993V18.9435Z" fill="#828282"/>
<path d="M31.9629 22.0908V8.42657H38.6732C40.0602 8.42657 41.1036 8.75147 41.8034 9.40125C42.5032 10.0385 42.853 10.882 42.853 11.9317C42.853 12.6314 42.6718 13.2562 42.3095 13.806C41.9596 14.3559 41.4535 14.7245 40.7912 14.9119V15.0619C41.5785 15.2243 42.1783 15.593 42.5906 16.1678C43.0155 16.7301 43.2279 17.3986 43.2279 18.1734C43.2279 19.4604 42.7968 20.4351 41.9346 21.0974C41.0849 21.7597 39.879 22.0908 38.317 22.0908H31.9629ZM34.7932 14.031H37.9797C38.6544 14.031 39.1418 13.8748 39.4417 13.5624C39.7541 13.25 39.9103 12.8439 39.9103 12.344C39.9103 11.7817 39.7228 11.3631 39.3479 11.0882C38.9856 10.8008 38.4982 10.6571 37.8859 10.6571H34.7932V14.031ZM34.7932 19.8415H37.9984C38.7731 19.8415 39.3417 19.6729 39.7041 19.3355C40.0665 18.9981 40.2477 18.5545 40.2477 18.0047C40.2477 17.3799 40.054 16.9238 39.6666 16.6364C39.2917 16.3365 38.7731 16.1865 38.1109 16.1865H34.7932V19.8415Z" fill="#0E0E0E"/>
<path d="M47.972 22.2595C46.8099 22.2595 45.9227 21.9221 45.3104 21.2473C44.6981 20.5726 44.3919 19.5916 44.3919 18.3046V12.0441H47.1473V17.5736C47.1473 18.3733 47.291 18.9856 47.5784 19.4104C47.8783 19.8228 48.3719 20.029 49.0591 20.029C49.7589 20.029 50.2962 19.7916 50.6711 19.3167C51.0585 18.8294 51.2522 18.2546 51.2522 17.5923V12.0441H54.0075V22.0908H51.3646L51.2522 20.2539H51.121C50.8835 20.9037 50.4774 21.4035 49.9026 21.7534C49.3403 22.0908 48.6968 22.2595 47.972 22.2595Z" fill="#0E0E0E"/>
<path d="M55.8989 10.7508V8.42657H58.6542V10.7508H55.8989ZM55.8989 22.0908V12.0441H58.6542V22.0908H55.8989Z" fill="#0E0E0E"/>
<path d="M60.6493 22.0908V8.42657H63.4046V22.0908H60.6493Z" fill="#0E0E0E"/>
<path d="M68.811 22.2595C67.6114 22.2595 66.643 21.8284 65.9057 20.9662C65.1685 20.0915 64.7998 18.7919 64.7998 17.0675C64.7998 15.3305 65.1685 14.031 65.9057 13.1688C66.643 12.294 67.6114 11.8567 68.811 11.8567C69.5857 11.8567 70.248 12.0316 70.7978 12.3815C71.3602 12.7314 71.76 13.2 71.9975 13.7873H72.1474V8.42657H74.9027V22.0908H72.2411L72.1474 20.3289H71.9975C71.76 20.9037 71.3602 21.3723 70.7978 21.7347C70.248 22.0846 69.5857 22.2595 68.811 22.2595ZM69.8607 20.029C70.373 20.029 70.7916 19.9103 71.1165 19.6729C71.4539 19.4354 71.7038 19.1293 71.8662 18.7544C72.0287 18.367 72.1099 17.9609 72.1099 17.5361V16.5801C72.1099 16.1428 72.0287 15.7367 71.8662 15.3618C71.7038 14.9869 71.4539 14.6808 71.1165 14.4433C70.7916 14.2059 70.373 14.0872 69.8607 14.0872C69.1859 14.0872 68.6423 14.3309 68.2299 14.8182C67.8176 15.2931 67.6114 16.0428 67.6114 17.0675C67.6114 18.0796 67.8176 18.8294 68.2299 19.3167C68.6423 19.7916 69.1859 20.029 69.8607 20.029Z" fill="#0E0E0E"/>
<path d="M76.8861 10.7508V8.42657H79.6414V10.7508H76.8861ZM76.8861 22.0908V12.0441H79.6414V22.0908H76.8861Z" fill="#0E0E0E"/>
<path d="M81.6365 22.0908V12.0441H84.2793L84.3918 13.8623H84.5042C84.7792 13.2 85.204 12.7002 85.7788 12.3628C86.3536 12.0254 86.9972 11.8567 87.7094 11.8567C88.3842 11.8567 88.984 11.9941 89.5088 12.2691C90.0462 12.544 90.471 12.9876 90.7834 13.5999C91.0958 14.1997 91.252 15.0056 91.252 16.0178V22.0908H88.4967V16.6176C88.4967 15.7679 88.3467 15.1369 88.0468 14.7245C87.7469 14.3121 87.2658 14.1059 86.6036 14.1059C85.8913 14.1059 85.3415 14.3496 84.9541 14.837C84.5792 15.3118 84.3918 15.8679 84.3918 16.5052V22.0908H81.6365Z" fill="#0E0E0E"/>
<path d="M95.4279 25.221C94.2783 25.221 93.4286 25.0273 92.8788 24.64C92.3415 24.2526 92.0728 23.734 92.0728 23.0842C92.0728 22.5344 92.2727 22.0908 92.6726 21.7534C93.0725 21.416 93.5286 21.2223 94.0409 21.1724V21.0224C93.641 20.8975 93.3224 20.6913 93.085 20.4039C92.86 20.104 92.7476 19.7666 92.7476 19.3917C92.7476 18.9418 92.8975 18.5607 93.1974 18.2483C93.5098 17.9234 93.9159 17.7048 94.4158 17.5923V17.4049C93.9909 17.1674 93.6473 16.8425 93.3849 16.4302C93.1349 16.0178 93.01 15.5305 93.01 14.9682C93.01 14.031 93.3849 13.2812 94.1346 12.7189C94.8969 12.1441 95.9153 11.8567 97.1898 11.8567C97.4023 11.8567 97.621 11.8754 97.8459 11.9129C98.0833 11.9379 98.302 11.9816 98.5019 12.0441C98.6769 11.3319 99.058 10.7758 99.6453 10.3759C100.233 9.96357 101.001 9.75114 101.951 9.73864V11.8754C101.476 11.8629 101.051 11.9192 100.676 12.0441C100.301 12.1566 100.014 12.3378 99.814 12.5877C100.264 12.8001 100.632 13.1375 100.92 13.5999C101.207 14.0497 101.351 14.5683 101.351 15.1556C101.351 16.0803 100.982 16.8176 100.245 17.3674C99.5203 17.9172 98.4894 18.1921 97.1524 18.1921C96.9024 18.1921 96.6525 18.1796 96.4026 18.1546C96.1527 18.1296 95.909 18.0921 95.6716 18.0421C95.4717 18.0546 95.3092 18.1234 95.1843 18.2483C95.0718 18.3608 95.0156 18.5045 95.0156 18.6794C95.0156 18.9169 95.1468 19.0731 95.4092 19.148C95.6841 19.2105 95.9902 19.2417 96.3276 19.2417H98.7643C99.9389 19.2417 100.801 19.4729 101.351 19.9353C101.913 20.3851 102.207 21.0536 102.232 21.9409C102.257 22.6906 102.101 23.3029 101.763 23.7777C101.438 24.2651 100.976 24.6275 100.376 24.8649C99.7765 25.1023 99.083 25.221 98.2957 25.221H95.4279ZM97.2086 16.4677C97.7209 16.4677 98.1145 16.3365 98.3895 16.074C98.6644 15.7991 98.8018 15.4493 98.8018 15.0244C98.8018 14.562 98.6519 14.2059 98.352 13.956C98.0521 13.7061 97.6647 13.5811 97.1898 13.5811C96.69 13.5811 96.2964 13.7186 96.009 13.9935C95.7216 14.2684 95.5779 14.612 95.5779 15.0244C95.5779 15.4742 95.7278 15.8304 96.0277 16.0928C96.3276 16.3427 96.7213 16.4677 97.2086 16.4677ZM95.8403 23.684H98.2582C99.0955 23.684 99.5141 23.3654 99.5141 22.7281C99.5141 22.3657 99.3954 22.1345 99.158 22.0346C98.9205 21.9221 98.6456 21.8659 98.3332 21.8659H95.2592C95.0218 21.9159 94.8281 22.0221 94.6782 22.1845C94.5282 22.347 94.4533 22.5407 94.4533 22.7656C94.4533 23.078 94.572 23.3092 94.8094 23.4591C95.0593 23.6091 95.4029 23.684 95.8403 23.684Z" fill="#0E0E0E"/>
<path d="M103.573 22.0908V8.42657H110.283C111.67 8.42657 112.714 8.75147 113.413 9.40125C114.113 10.0385 114.463 10.882 114.463 11.9317C114.463 12.6314 114.282 13.2562 113.92 13.806C113.57 14.3559 113.064 14.7245 112.401 14.9119V15.0619C113.189 15.2243 113.788 15.593 114.201 16.1678C114.626 16.7301 114.838 17.3986 114.838 18.1734C114.838 19.4604 114.407 20.4351 113.545 21.0974C112.695 21.7597 111.489 22.0908 109.927 22.0908H103.573ZM106.403 14.031H109.59C110.265 14.031 110.752 13.8748 111.052 13.5624C111.364 13.25 111.52 12.8439 111.52 12.344C111.52 11.7817 111.333 11.3631 110.958 11.0882C110.596 10.8008 110.108 10.6571 109.496 10.6571H106.403V14.031ZM106.403 19.8415H109.608C110.383 19.8415 110.952 19.6729 111.314 19.3355C111.677 18.9981 111.858 18.5545 111.858 18.0047C111.858 17.3799 111.664 16.9238 111.277 16.6364C110.902 16.3365 110.383 16.1865 109.721 16.1865H106.403V19.8415Z" fill="#0E0E0E"/>
<path d="M116.279 22.0908V8.42657H119.034V22.0908H116.279Z" fill="#0E0E0E"/>
<path d="M125.471 22.2595C124.472 22.2595 123.591 22.0533 122.829 21.641C122.066 21.2286 121.473 20.635 121.048 19.8603C120.636 19.0856 120.429 18.1546 120.429 17.0675C120.429 16.0303 120.629 15.1244 121.029 14.3496C121.429 13.5624 122.004 12.9501 122.754 12.5127C123.503 12.0754 124.409 11.8567 125.471 11.8567C126.471 11.8567 127.346 12.0629 128.096 12.4752C128.858 12.8876 129.445 13.4874 129.858 14.2746C130.282 15.0494 130.495 15.9803 130.495 17.0675C130.495 18.1046 130.295 19.0168 129.895 19.8041C129.495 20.5788 128.92 21.1849 128.171 21.6222C127.433 22.0471 126.534 22.2595 125.471 22.2595ZM125.453 20.029C126.127 20.029 126.671 19.7853 127.083 19.298C127.496 18.8106 127.702 18.0671 127.702 17.0675C127.702 16.0678 127.502 15.3243 127.102 14.837C126.702 14.3496 126.159 14.1059 125.471 14.1059C124.784 14.1059 124.234 14.3496 123.822 14.837C123.41 15.3243 123.203 16.0678 123.203 17.0675C123.203 18.0546 123.403 18.7981 123.803 19.298C124.216 19.7853 124.765 20.029 125.453 20.029Z" fill="#0E0E0E"/>
<path d="M136.444 22.2595C135.444 22.2595 134.57 22.0471 133.82 21.6222C133.07 21.1849 132.489 20.5788 132.077 19.8041C131.664 19.0168 131.458 18.1046 131.458 17.0675C131.458 16.0178 131.664 15.1056 132.077 14.3309C132.502 13.5436 133.095 12.9376 133.857 12.5127C134.62 12.0754 135.513 11.8567 136.538 11.8567C137.4 11.8567 138.168 12.0191 138.843 12.344C139.518 12.6689 140.049 13.1188 140.436 13.6936C140.836 14.2684 141.055 14.9369 141.093 15.6992H138.393C138.306 15.1743 138.087 14.7807 137.737 14.5183C137.387 14.2434 136.963 14.1059 136.463 14.1059C135.738 14.1059 135.188 14.3746 134.813 14.9119C134.438 15.4493 134.251 16.1678 134.251 17.0675C134.251 18.0546 134.451 18.7919 134.851 19.2792C135.263 19.7666 135.794 20.0102 136.444 20.0102C137.031 20.0102 137.494 19.8603 137.831 19.5604C138.181 19.2605 138.381 18.8669 138.431 18.3795H141.111C141.074 19.1668 140.849 19.854 140.436 20.4414C140.037 21.0162 139.493 21.466 138.806 21.7909C138.118 22.1033 137.331 22.2595 136.444 22.2595Z" fill="#0E0E0E"/>
<path d="M142.428 22.0908V8.42657H145.221V16.2053L146.045 15.2493L149.026 12.0441H152.418L148.557 16.0178L152.493 22.0908H149.251L147.208 18.9044L146.608 17.8547L145.221 19.223V22.0908H142.428Z" fill="#0E0E0E"/>
<path d="M157.322 22.2782C155.86 22.2782 154.729 21.9721 153.929 21.3598C153.142 20.735 152.755 19.9228 152.767 18.9231H155.466C155.479 19.4604 155.666 19.8478 156.029 20.0852C156.403 20.3101 156.86 20.4226 157.397 20.4226C157.959 20.4226 158.384 20.3289 158.671 20.1415C158.959 19.9415 159.103 19.6729 159.103 19.3355C159.103 18.8731 158.934 18.5732 158.596 18.4358C158.272 18.2983 157.753 18.1796 157.041 18.0796C156.303 17.9797 155.629 17.836 155.016 17.6485C154.404 17.4486 153.917 17.1487 153.554 16.7488C153.204 16.349 153.03 15.7804 153.03 15.0431C153.03 13.981 153.429 13.1875 154.229 12.6627C155.041 12.1254 156.104 11.8567 157.416 11.8567C158.703 11.8567 159.727 12.1378 160.49 12.7002C161.252 13.25 161.645 14.0247 161.67 15.0244H158.971C158.971 14.5995 158.821 14.2746 158.521 14.0497C158.234 13.8248 157.84 13.7123 157.341 13.7123C156.828 13.7123 156.441 13.8123 156.178 14.0122C155.916 14.1997 155.785 14.4496 155.785 14.762C155.785 15.1369 155.954 15.3993 156.291 15.5492C156.628 15.6992 157.166 15.8241 157.903 15.9241C158.428 15.9991 158.928 16.0928 159.402 16.2053C159.877 16.3052 160.296 16.4677 160.658 16.6926C161.033 16.905 161.327 17.2049 161.539 17.5923C161.764 17.9672 161.877 18.4608 161.877 19.0731C161.877 20.1727 161.47 20.9849 160.658 21.5097C159.846 22.0221 158.734 22.2782 157.322 22.2782Z" fill="#0E0E0E"/>
</svg>

<svg xmlns="http://www.w3.org/2000/svg" width="163" height="33" fill="none" viewBox="0 0 163 33"><path fill="#828282" fill-rule="evenodd" d="M9.125 2.885 4.516 5.546l4.612 2.662 4.61-2.661zm5.952 4.98-4.61 2.662v5.324l4.61-2.662zm1.34 7.643-4.612 2.662 4.612 2.662 4.61-2.661zm5.949 4.982-4.61 2.661v5.323l4.61-2.661zm-7.288 7.985V23.15l-4.612-2.662v5.324zm-7.29-12.623-4.61-2.663V7.865l4.611 2.662zm0 3.092-6.284-3.63A2.01 2.01 0 0 1 .5 13.576V5.547c0-.479.255-.92.67-1.16L8.12.373a2.01 2.01 0 0 1 2.009 0l6.956 4.014c.415.24.67.681.67 1.16v7.642l6.62 3.822c.413.24.669.681.669 1.16v8.028a2.01 2.01 0 0 1-1.005 1.74l-6.953 4.014c-.414.24-.924.24-1.338 0l-6.955-4.014a2.01 2.01 0 0 1-1.004-1.74z" clip-rule="evenodd"/><path fill="#0e0e0e" d="M31.963 22.09V8.428h6.71q2.08 0 3.13.974 1.05.957 1.05 2.53 0 1.05-.544 1.875-.524.825-1.518 1.106v.15q1.181.243 1.8 1.106.637.843.637 2.005 0 1.93-1.293 2.924-1.275.994-3.618.994zm2.83-8.059h3.187q1.011 0 1.462-.469.468-.468.468-1.218 0-.842-.562-1.256-.544-.43-1.462-.43h-3.093zm0 5.81h3.205q1.163 0 1.706-.506.543-.505.544-1.33 0-.937-.581-1.369-.563-.45-1.556-.45h-3.318zm13.179 2.419q-1.743 0-2.662-1.013-.918-1.011-.918-2.942v-6.26h2.755v5.529q0 1.2.431 1.836.45.62 1.481.619 1.05 0 1.612-.712.581-.731.581-1.725v-5.548h2.755v10.047h-2.642l-.113-1.837h-.131a2.84 2.84 0 0 1-1.218 1.5q-.844.505-1.931.505m7.927-11.509V8.428h2.755v2.324zm0 11.34V12.045h2.755v10.047zm4.751 0V8.428h2.755V22.09zm8.161.17q-1.8 0-2.905-1.294-1.106-1.312-1.106-3.899 0-2.605 1.106-3.898 1.105-1.312 2.905-1.312 1.162 0 1.987.525.843.525 1.2 1.405h.15v-5.36h2.755V22.09H72.24l-.094-1.762h-.15q-.356.862-1.2 1.406-.823.524-1.986.524m1.05-2.231q.768 0 1.255-.356.507-.357.75-.919.244-.58.244-1.218v-.956a3 3 0 0 0-.244-1.218 2.15 2.15 0 0 0-.75-.919q-.487-.356-1.255-.356-1.013 0-1.631.731-.619.713-.619 2.25 0 1.518.619 2.249.619.712 1.63.712m7.027-9.277V8.428h2.755v2.324zm0 11.34V12.045h2.755v10.047zm4.751 0V12.045h2.642l.113 1.818h.112q.412-.993 1.275-1.5a3.74 3.74 0 0 1 1.93-.505q1.013 0 1.8.412.806.413 1.274 1.33.47.9.469 2.419v6.073h-2.755v-5.473q0-1.275-.45-1.893-.45-.62-1.443-.62-1.07 0-1.65.732a2.6 2.6 0 0 0-.562 1.668v5.586zm13.791 3.131q-1.725 0-2.55-.581-.805-.58-.805-1.556 0-.825.6-1.33.6-.507 1.368-.582v-.15a1.96 1.96 0 0 1-.956-.618 1.64 1.64 0 0 1-.337-1.012q0-.675.45-1.144.468-.487 1.218-.656v-.187a2.86 2.86 0 0 1-1.031-.975q-.375-.619-.375-1.462 0-1.405 1.125-2.25 1.143-.861 3.055-.861.318 0 .656.056.356.038.656.131.262-1.068 1.143-1.668.881-.619 2.306-.637v2.136q-.713-.018-1.275.17-.562.168-.862.543.674.319 1.106 1.012.43.675.431 1.556 0 1.387-1.106 2.211-1.087.825-3.093.825-.375 0-.75-.037a7 7 0 0 1-.73-.113.73.73 0 0 0-.488.206.58.58 0 0 0-.168.431q0 .357.393.469.412.094.919.094h2.436q1.762 0 2.587.693.843.675.881 2.006.038 1.125-.469 1.837-.487.731-1.387 1.087t-2.08.356zm1.78-8.753q.77 0 1.181-.394.413-.412.413-1.05 0-.693-.45-1.068t-1.162-.375q-.75 0-1.181.412a1.37 1.37 0 0 0-.431 1.031q0 .675.45 1.069.45.375 1.18.375m-1.368 7.216h2.418q1.256 0 1.256-.956 0-.544-.356-.693a1.9 1.9 0 0 0-.825-.17H95.26q-.355.075-.58.32a.83.83 0 0 0-.226.58q0 .47.356.694.375.225 1.031.225m7.732-1.594V8.428h6.71q2.081 0 3.13.974 1.05.957 1.05 2.53 0 1.05-.543 1.875-.525.825-1.519 1.106v.15q1.181.243 1.8 1.106.637.843.637 2.005 0 1.93-1.293 2.924-1.275.994-3.618.994zm2.83-8.059h3.187q1.012 0 1.462-.469.468-.468.468-1.218 0-.842-.562-1.256-.543-.43-1.462-.43h-3.093zm0 5.81h3.205q1.163 0 1.706-.506.544-.505.544-1.33 0-.937-.581-1.369-.563-.45-1.556-.45h-3.318zm9.876 2.249V8.428h2.755V22.09zm9.192.17q-1.499 0-2.642-.619a4.36 4.36 0 0 1-1.781-1.78q-.618-1.162-.619-2.794 0-1.556.6-2.717.6-1.182 1.725-1.837 1.124-.657 2.717-.656 1.5 0 2.625.618a4.23 4.23 0 0 1 1.762 1.8q.637 1.161.637 2.792 0 1.557-.6 2.737-.6 1.162-1.724 1.818-1.106.637-2.7.637m-.018-2.231q1.012 0 1.63-.731.62-.73.619-2.23 0-1.5-.6-2.231t-1.631-.731q-1.03 0-1.649.731-.618.73-.619 2.23 0 1.482.6 2.231.619.73 1.65.731m10.991 2.232q-1.5 0-2.624-.638a4.5 4.5 0 0 1-1.743-1.818q-.62-1.181-.619-2.736 0-1.575.619-2.737a4.46 4.46 0 0 1 1.78-1.818q1.144-.657 2.681-.656 1.293 0 2.305.487t1.593 1.35q.6.861.657 2.005h-2.7q-.13-.787-.656-1.18-.524-.413-1.274-.413-1.088 0-1.65.806t-.562 2.155q0 1.482.6 2.212.618.732 1.593.731.881 0 1.387-.45.525-.45.6-1.18h2.68q-.055 1.18-.675 2.061-.599.862-1.63 1.35-1.032.468-2.362.468m5.984-.169V8.428h2.793v7.778l.824-.956 2.981-3.205h3.392l-3.861 3.974 3.936 6.073h-3.242l-2.043-3.187-.6-1.05-1.387 1.369v2.868zm14.894.188q-2.193 0-3.393-.918-1.18-.937-1.162-2.437h2.699q.019.806.563 1.162.562.338 1.368.338.843 0 1.274-.281a.93.93 0 0 0 .432-.806q0-.695-.507-.9-.487-.206-1.555-.356-1.106-.15-2.025-.431-.918-.3-1.462-.9-.524-.6-.524-1.706 0-1.593 1.199-2.38 1.218-.807 3.187-.806 1.93 0 3.074.843 1.143.825 1.18 2.324h-2.699q0-.637-.45-.974-.431-.338-1.18-.338-.769 0-1.163.3a.88.88 0 0 0-.393.75q0 .562.506.787t1.612.375q.788.113 1.499.281.713.15 1.256.488.563.318.881.9.338.561.338 1.48 0 1.65-1.219 2.437-1.218.768-3.336.768"/></svg>
